X: 11016
T: Drunken Tinker, The
R: reel
M: 4/4
K: Gmixolydian
DG{A}GF DEFE|DGG/G/G dGBG|DG{A}GF DCDE|F/F/EFG ABcB|
[DA]~G3 DEFE|DGG/G/G dGBG|DGGF D3E|FEFG ABcA|
G2dG eGdG|G/G/GdG d2cA|G2dG eGdA|~c2AF CFAF|
G2dG eGdG|G/G/GdG d2cA|~d3e fefd|cAFD G3F|

